X: 3936
T: Blackbird, The
R: hornpipe
M: 4/4
K: Dmajor
B3d A2 A/B/c|d2 AG (3FGF D2|FGAF GBAG|(3FGF D2 DFGA|
~B3d A2 Bc|d2 AG (3FGF D2|FGAF GBAG|(3FGF D2 DEFG||
Addc dfeg|fded cAGB|Addc deag|(3fgf d2 d2 fe|
dcAF G2 A/B/c|d2 AG (3FGF D2|FGAF GBAG|1 (3FGF D2 DEFG:|2 (3FGF D2 DFGA||

